public/category-3.svg.svg

<svg width="31" height="31" viewBox="0 0 31 31" fill="none" xmlns="http://www.w3.org/2000/svg">
<g clip-path="url(#clip0_6511_552)">
<g clip-path="url(#clip1_6511_552)">
<g clip-path="url(#clip2_6511_552)">
<mask id="mask0_6511_552" style="mask-type:luminance" maskUnits="userSpaceOnUse" x="0" y="0" width="31" height="31">
<path d="M30.4375 0.206482H0.4375V30.2065H30.4375V0.206482Z" fill="white"/>
</mask>
<g mask="url(#mask0_6511_552)">
<path d="M8.875 21.5815C7.975 21.4315 7.49999 21.769 7.375 21.9565L7.1875 22.144C7 22.394 6.625 22.9315 6.625 23.0815V24.2065C6.625 24.394 6.625 24.9565 6.8125 25.3315C7 25.7065 7 25.894 7.1875 26.0815C7.375 26.269 7.5625 26.4565 7.75 26.4565C7.9375 26.4565 8.875 26.644 9.0625 26.644H11.125C11.6875 26.644 11.875 26.4565 12.25 26.4565C12.625 26.4565 13 26.269 13 26.0815C13 25.894 13.1875 25.7065 13.375 25.519C13.5625 25.3315 13.375 24.9565 13.5625 24.6473C13.75 24.338 13.5625 24.2065 13.5625 24.019V23.0815C13.5625 22.894 13.375 22.7065 13.375 22.519C13.375 22.3315 13 22.144 12.8125 21.9565C12.6625 21.8065 12.25 21.644 12.0625 21.5815C11.375 21.644 9.775 21.7315 8.875 21.5815Z" fill="#FDC040"/>
<path d="M25.5625 11.8315C22.8625 12.8815 17.6875 12.269 15.4375 11.8315L14.875 12.2065L13.9375 13.7065L13.375 15.019C13.975 15.169 15.75 16.7065 16.5625 17.4565L17.125 18.5815C18.475 18.7315 18.8125 19.894 18.8125 20.4565L19 24.394C21.55 25.144 27.4375 23.9565 30.0625 23.269C30.2125 22.969 29.625 19.769 29.3125 18.2065C28.5625 15.9565 26.5 13.019 25.5625 11.8315Z" fill="#FDC040"/>
<path d="M28.2233 14.8007C27.3277 13.1639 26.4375 12.1062 26.1168 11.7481V9.33232L30.2771 5.91626C30.3761 5.83485 30.4348 5.71432 30.4376 5.58611C30.4404 5.4579 30.387 5.33494 30.2915 5.24936L27.1438 2.42797C26.963 2.26601 26.6852 2.28124 26.5232 2.4619C26.3611 2.64261 26.3764 2.92047 26.5571 3.08249L29.3235 5.56204L26.117 8.19495V6.39769C26.117 6.15499 25.9203 5.95819 25.6775 5.95819C25.4347 5.95819 25.238 6.15499 25.238 6.39769L25.2378 11.5481C22.0999 12.0559 18.9241 12.0559 15.7863 11.548V6.39769C15.7863 6.15499 15.5896 5.95819 15.3468 5.95819C15.104 5.95819 14.9073 6.15499 14.9073 6.39769V8.1951L11.7006 5.56204L15.1216 2.49529C15.6249 2.04399 16.2748 1.85642 16.9003 1.93072C17.0291 2.48399 17.3249 3.64448 17.7791 4.8006C18.5255 6.70031 19.3961 7.83604 20.3667 8.17605C20.4138 8.19251 20.4629 8.2008 20.512 8.2008C20.5611 8.2008 20.6102 8.19251 20.6572 8.17605C21.6278 7.83604 22.4985 6.70031 23.2451 4.80064C23.6986 3.64671 23.994 2.48926 24.1233 1.93465C24.5105 1.88836 24.9104 1.94016 25.2821 2.09931C25.5054 2.19487 25.7636 2.09133 25.8591 1.86826C25.9547 1.64512 25.8512 1.38684 25.6281 1.29132C24.4991 0.807963 23.183 1.02999 22.2747 1.85671L21.8691 2.22587C21.0953 2.93043 19.9289 2.93043 19.1554 2.22587L18.7499 1.85671C17.5525 0.766597 15.7403 0.759858 14.5348 1.84095L10.7325 5.24947C10.637 5.33505 10.5836 5.45809 10.5865 5.58622C10.5892 5.71444 10.6478 5.83496 10.7469 5.91637L14.9072 9.33247V11.7479C14.6191 12.0685 13.8787 12.9441 13.0895 14.2868C12.4211 13.9306 11.7143 13.579 10.9983 13.2231C10.3726 12.9119 9.74244 12.5985 9.1375 12.2803C9.72872 11.5399 10.1848 10.7019 10.3846 9.71944C10.69 8.21801 10.2433 6.87686 9.15898 6.03982C8.13103 5.24632 6.71541 5.06944 5.63627 5.59965C5.0578 5.88386 4.08739 6.62145 4.08739 8.36786C4.08739 9.47332 4.78945 10.5184 6.23376 11.5628C6.68552 11.8895 7.19346 12.2059 7.73406 12.5146C7.06382 13.1739 6.29466 13.7607 5.56798 14.3149C4.00354 15.5081 2.51924 16.6411 2.48086 18.1677C1.52375 18.3972 0.785268 19.1953 0.656708 20.2006C0.364431 22.4893 0.364431 24.8103 0.656708 27.0992C0.80437 28.2533 1.75626 29.1352 2.92021 29.1962C5.254 29.3179 7.60416 29.3787 9.9544 29.3787C12.3046 29.3787 14.6549 29.3179 16.9887 29.1962C18.1529 29.1352 19.1045 28.2531 19.2515 27.0992C19.3391 26.4149 19.3998 25.7277 19.435 25.0394C19.7926 25.0501 20.1531 25.0558 20.512 25.0558C26.2491 25.0558 29.9922 23.7135 30.1488 23.6563C30.3222 23.593 30.4376 23.4281 30.4376 23.2435C30.4377 19.6104 29.2335 16.647 28.2233 14.8007ZM18.5637 2.87547C19.6742 3.88736 21.3498 3.88736 22.461 2.87559L22.8665 2.50649C22.9489 2.43148 23.036 2.36346 23.1269 2.3024C22.9742 2.88461 22.7401 3.68298 22.4272 4.479C21.6947 6.34312 21.003 7.04164 20.5121 7.28486C20.0213 7.04164 19.3297 6.34312 18.5973 4.479C18.2845 3.68286 18.0503 2.88396 17.8976 2.30152C17.9881 2.36263 18.0753 2.43084 18.1584 2.50643L18.5637 2.87547ZM4.96656 8.3676C4.96656 7.41262 5.33222 6.72817 6.02406 6.38824C6.31341 6.24607 6.64405 6.17711 6.9844 6.17711C7.55312 6.17711 8.1487 6.36982 8.62213 6.7353C9.09752 7.10224 9.84673 7.9551 9.5236 9.54394C9.34645 10.4149 8.91306 11.1726 8.34748 11.8519C6.44811 10.7875 4.96656 9.65749 4.96656 8.3676ZM2.96604 18.9815C3.74941 18.9409 4.53306 18.9069 5.29528 18.8805C5.53787 18.8721 5.72766 18.6687 5.71922 18.4261C5.71078 18.1834 5.50892 17.9944 5.26483 18.0021C4.64323 18.0236 4.00741 18.0504 3.36918 18.0814C3.48238 17.0118 4.70646 16.0773 6.10123 15.0135C6.92057 14.3885 7.79038 13.7251 8.53798 12.9568C9.21145 13.3158 9.91461 13.6654 10.6071 14.0098C11.3003 14.3545 11.9992 14.7021 12.6619 15.0557C12.2266 15.8829 11.7984 16.8455 11.444 17.93C9.96565 17.9136 8.48972 17.9199 7.02482 17.9521C6.78212 17.9574 6.58975 18.1584 6.59507 18.4011C6.6004 18.6438 6.80038 18.8382 7.04402 18.8308C10.3201 18.7589 13.6507 18.8097 16.9431 18.9815C17.6824 19.0198 18.2866 19.5792 18.3799 20.3118C18.4416 20.7941 18.4891 21.2779 18.5239 21.7626C18.4883 22.2489 18.4401 22.7317 18.3799 23.1988C18.2867 23.9308 17.6822 24.4899 16.9424 24.5283C15.9473 24.5803 14.9477 24.6207 13.9622 24.6503C13.9833 24.0297 13.9696 23.4066 13.9199 22.7895C13.8527 21.9549 13.1756 21.2911 12.345 21.2457C10.923 21.1679 9.48092 21.1678 8.05922 21.2457C7.2286 21.2911 6.55157 21.9549 6.48433 22.7895C6.43423 23.4113 6.4207 24.0393 6.44248 24.6646C5.28516 24.6337 4.11839 24.5886 2.96604 24.5283C2.22644 24.49 1.62196 23.9309 1.52879 23.1987C1.46984 22.7371 1.4215 22.2558 1.3847 21.7678C1.41951 21.2814 1.46698 20.7958 1.52879 20.3118C1.62243 19.5793 2.22691 19.0198 2.96604 18.9815ZM13.4353 15.4821C14.8591 16.2968 16.0094 17.149 16.396 18.0756C15.0561 18.0117 13.7113 17.9673 12.3668 17.9432C12.6836 17.0257 13.0565 16.2009 13.4353 15.4821ZM13.0437 25.3307C13.0116 25.7292 12.6906 26.0459 12.297 26.0674C10.9069 26.1435 9.49735 26.1435 8.10715 26.0674C7.71355 26.0459 7.39251 25.7292 7.36037 25.3307C7.29433 24.511 7.29433 23.6797 7.36037 22.8601C7.39251 22.4616 7.71355 22.1449 8.10718 22.1233C8.80221 22.0853 9.50215 22.0663 10.202 22.0663C10.902 22.0663 11.6019 22.0853 12.297 22.1233C12.6906 22.1449 13.0116 22.4616 13.0437 22.8601C13.1098 23.6797 13.1098 24.511 13.0437 25.3307ZM16.943 28.3183C12.3058 28.56 7.60337 28.56 2.96633 28.3183C2.22708 28.2795 1.62243 27.7199 1.52879 26.9875C1.43188 26.2285 1.36894 25.4658 1.33847 24.7019C1.74782 25.1123 2.30431 25.3741 2.92033 25.4061C4.10755 25.4683 5.31028 25.5145 6.50241 25.5455C6.6313 26.3112 7.27708 26.9023 8.05915 26.9451C8.77015 26.984 9.48613 27.0035 10.202 27.0035C10.918 27.0035 11.634 26.984 12.3449 26.9451C13.1318 26.902 13.7805 26.3039 13.9038 25.5315C14.9231 25.5015 15.9581 25.4599 16.988 25.4061C17.6044 25.3741 18.1611 25.1121 18.5705 24.7016C18.54 25.4656 18.4769 26.2285 18.3799 26.9877C18.2866 27.72 17.6822 28.2795 16.943 28.3183ZM28.1164 23.3203C28.026 21.9991 27.8589 20.6828 27.6181 19.3999C27.5733 19.1614 27.3439 19.0044 27.1051 19.0491C26.8666 19.0938 26.7094 19.3236 26.7543 19.5621C26.9968 20.8542 27.1619 22.1815 27.2476 23.5128C26.9093 23.5821 26.5256 23.6541 26.1009 23.7242C26.0478 21.9569 25.8592 20.197 25.5382 18.4857C25.4934 18.2471 25.2637 18.0901 25.0252 18.1347C24.7867 18.1795 24.6296 18.4092 24.6743 18.6477C24.9933 20.3486 25.1784 22.0989 25.2257 23.8564C23.9153 24.0363 22.315 24.1768 20.512 24.1768C20.1634 24.1768 19.8132 24.1713 19.4659 24.1609C19.4907 22.8382 19.4196 21.5141 19.2516 20.2007C19.1198 19.1658 18.3414 18.3506 17.3432 18.1491C17.0205 16.8062 15.6418 15.7275 13.8646 14.7133C14.567 13.5244 15.2242 12.7225 15.5111 12.3934C17.171 12.6697 18.8416 12.8082 20.5123 12.8082C22.1828 12.8082 23.8533 12.6697 25.5131 12.3935C25.8429 12.7706 26.6592 13.7677 27.4665 15.2491C28.3915 16.9464 29.4887 19.6366 29.5554 22.9275C29.2696 23.0177 28.7795 23.162 28.1164 23.3203Z" fill="#3BB77E"/>
<path d="M11.9664 22.7899C11.3794 22.7624 10.7861 22.7485 10.2029 22.7485C9.61964 22.7485 9.02632 22.7624 8.43929 22.7899C8.21512 22.8004 8.03486 22.9781 8.02117 23.2022C7.98513 23.7948 7.98513 24.3959 8.02117 24.9886C8.03482 25.2127 8.21512 25.3904 8.43929 25.4009C9.02583 25.4283 9.61923 25.4423 10.2029 25.4423C10.7865 25.4423 11.3799 25.4284 11.9664 25.4009C12.1906 25.3904 12.3709 25.2127 12.3846 24.9886C12.4206 24.3959 12.4206 23.7949 12.3846 23.2022C12.3709 22.9782 12.1907 22.8004 11.9664 22.7899ZM11.5256 24.5395C10.6423 24.5712 9.76346 24.5712 8.88022 24.5395C8.87081 24.2438 8.87081 23.947 8.88022 23.6514C9.76402 23.6196 10.6418 23.6196 11.5256 23.6514C11.535 23.947 11.535 24.2438 11.5256 24.5395Z" fill="#3BB77E"/>
</g>
</g>
</g>
</g>
<defs>
<clipPath id="clip0_6511_552">
<rect width="30" height="30" fill="white" transform="translate(0.4375 0.206482)"/>
</clipPath>
<clipPath id="clip1_6511_552">
<rect width="30" height="30" fill="white" transform="translate(0.4375 0.206482)"/>
</clipPath>
<clipPath id="clip2_6511_552">
<rect width="30" height="30" fill="white" transform="translate(0.4375 0.206482)"/>
</clipPath>
</defs>
</svg>

<svg xmlns="http://www.w3.org/2000/svg" width="31" height="31" fill="none"><g clip-path="url(#a)"><g clip-path="url(#b)"><g clip-path="url(#c)"><mask id="d" width="31" height="31" x="0" y="0" maskUnits="userSpaceOnUse" style="mask-type:luminance"><path fill="#fff" d="M30.438.206h-30v30h30z"/></mask><g mask="url(#d)"><path fill="#FDC040" d="M8.875 21.582c-.9-.15-1.375.187-1.5.374l-.187.188c-.188.25-.563.788-.563.938v1.124c0 .188 0 .75.188 1.125.187.375.187.563.375.75.187.188.375.375.562.375s1.125.188 1.313.188h2.062c.563 0 .75-.187 1.125-.187s.75-.188.75-.376c0-.187.188-.375.375-.562.188-.187 0-.562.188-.872.187-.309 0-.44 0-.628v-.937c0-.188-.188-.376-.188-.563s-.375-.375-.562-.562c-.15-.15-.563-.313-.75-.376-.688.063-2.288.15-3.188 0M25.563 11.832c-2.7 1.05-7.875.437-10.125 0l-.563.374-.937 1.5-.563 1.313c.6.15 2.375 1.687 3.188 2.437l.562 1.125c1.35.15 1.688 1.313 1.688 1.875L19 24.394c2.55.75 8.438-.437 11.063-1.125.15-.3-.438-3.5-.75-5.062-.75-2.25-2.813-5.188-3.75-6.376"/><path fill="#3BB77E" d="M28.223 14.8c-.895-1.636-1.785-2.694-2.106-3.052V9.332l4.16-3.416a.44.44 0 0 0 .014-.667l-3.147-2.821a.44.44 0 0 0-.587.654l2.767 2.48-3.207 2.633V6.398a.44.44 0 1 0-.879 0v5.15a29.5 29.5 0 0 1-9.452 0v-5.15a.44.44 0 1 0-.879 0v1.797l-3.206-2.633 3.42-3.067a2.26 2.26 0 0 1 1.78-.564c.128.553.424 1.713.878 2.87.747 1.9 1.617 3.035 2.588 3.375a.44.44 0 0 0 .29 0c.97-.34 1.842-1.476 2.588-3.375a22 22 0 0 0 .878-2.866 2.26 2.26 0 0 1 1.16.164.44.44 0 0 0 .345-.808 3.15 3.15 0 0 0-3.353.566l-.406.369a2.006 2.006 0 0 1-2.714 0l-.405-.37a3.135 3.135 0 0 0-4.215-.015l-3.802 3.408a.44.44 0 0 0 .014.667l4.16 3.416v2.416c-.288.32-1.028 1.196-1.818 2.539A84 84 0 0 0 11 13.223c-.626-.311-1.257-.625-1.862-.943.592-.74 1.048-1.578 1.248-2.56.305-1.502-.142-2.843-1.226-3.68-1.028-.794-2.444-.97-3.523-.44-.578.284-1.549 1.021-1.549 2.768 0 1.105.702 2.15 2.147 3.195.452.326.96.643 1.5.952-.67.659-1.44 1.246-2.166 1.8-1.564 1.193-3.049 2.326-3.087 3.853A2.4 2.4 0 0 0 .657 20.2a27.3 27.3 0 0 0 0 6.898 2.406 2.406 0 0 0 2.263 2.097 135 135 0 0 0 14.069 0A2.405 2.405 0 0 0 19.25 27.1q.132-1.026.184-2.06.538.017 1.077.017c5.737 0 9.48-1.343 9.637-1.4a.44.44 0 0 0 .289-.412c0-3.634-1.204-6.597-2.215-8.443m-9.66-11.925a2.88 2.88 0 0 0 3.898 0l.406-.369q.123-.113.26-.204c-.153.583-.387 1.381-.7 2.177-.732 1.864-1.424 2.563-1.915 2.806-.49-.243-1.182-.942-1.915-2.806a20 20 0 0 1-.7-2.177q.137.09.261.204zM4.968 8.368c0-.955.365-1.64 1.057-1.98.29-.142.62-.21.96-.21a2.72 2.72 0 0 1 1.638.557c.476.367 1.225 1.22.902 2.809-.178.87-.61 1.629-1.177 2.308-1.899-1.065-3.38-2.195-3.38-3.484M2.966 18.982c.783-.041 1.567-.075 2.33-.101a.44.44 0 1 0-.031-.879c-.622.022-1.258.048-1.896.08.113-1.07 1.337-2.005 2.732-3.068.82-.625 1.69-1.289 2.437-2.057.673.359 1.377.708 2.07 1.053s1.391.692 2.054 1.046c-.435.827-.864 1.79-1.218 2.874-1.478-.016-2.954-.01-4.42.022a.44.44 0 1 0 .02.879c3.276-.072 6.607-.021 9.9.15.738.039 1.343.598 1.436 1.33q.093.724.144 1.452c-.036.486-.084.969-.144 1.436a1.526 1.526 0 0 1-1.438 1.33c-.995.051-1.994.092-2.98.121a16 16 0 0 0-.042-1.86 1.68 1.68 0 0 0-1.575-1.544 39 39 0 0 0-4.286 0c-.83.045-1.507.709-1.575 1.544-.05.621-.063 1.25-.042 1.875-1.157-.031-2.324-.076-3.476-.137a1.525 1.525 0 0 1-1.437-1.33 28 28 0 0 1-.144-1.43q.052-.73.144-1.456a1.526 1.526 0 0 1 1.437-1.33m10.47-3.5c1.423.815 2.573 1.667 2.96 2.594a136 136 0 0 0-4.03-.133c.318-.917.69-1.742 1.07-2.46m-.392 9.849a.8.8 0 0 1-.747.736c-1.39.076-2.8.076-4.19 0a.8.8 0 0 1-.747-.736 15.4 15.4 0 0 1 0-2.47.8.8 0 0 1 .747-.738 38 38 0 0 1 4.19 0 .8.8 0 0 1 .747.737c.066.82.066 1.651 0 2.47m3.899 2.987c-4.637.242-9.34.242-13.977 0a1.53 1.53 0 0 1-1.437-1.33 26 26 0 0 1-.19-2.286c.409.41.965.672 1.581.704 1.188.062 2.39.109 3.582.14a1.68 1.68 0 0 0 1.557 1.4 39 39 0 0 0 4.286 0 1.68 1.68 0 0 0 1.559-1.415c1.02-.03 2.054-.071 3.084-.125a2.4 2.4 0 0 0 1.582-.704q-.045 1.146-.19 2.286a1.53 1.53 0 0 1-1.437 1.33m11.173-4.998a34 34 0 0 0-.498-3.92.44.44 0 1 0-.864.162c.243 1.292.408 2.62.494 3.95q-.509.106-1.147.212a34 34 0 0 0-.563-5.238.44.44 0 0 0-.864.162c.32 1.7.504 3.45.552 5.208a35 35 0 0 1-5.76.305 27 27 0 0 0-.214-3.96 2.4 2.4 0 0 0-1.909-2.052c-.323-1.343-1.701-2.422-3.478-3.436a16 16 0 0 1 1.646-2.32 30.4 30.4 0 0 0 10.002 0c.33.378 1.146 1.375 1.953 2.856.925 1.697 2.023 4.388 2.09 7.678-.286.09-.777.235-1.44.393"/><path fill="#3BB77E" d="M11.966 22.79a38 38 0 0 0-3.527 0 .44.44 0 0 0-.418.412 15 15 0 0 0 0 1.787.44.44 0 0 0 .418.412 38 38 0 0 0 3.527 0 .44.44 0 0 0 .419-.412c.036-.593.036-1.194 0-1.787a.44.44 0 0 0-.419-.412m-.44 1.75c-.884.031-1.763.031-2.646 0q-.015-.445 0-.889a37 37 0 0 1 2.646 0q.014.445 0 .889"/></g></g></g></g><defs><clipPath id="a"><path fill="#fff" d="M.438.206h30v30h-30z"/></clipPath><clipPath id="b"><path fill="#fff" d="M.438.206h30v30h-30z"/></clipPath><clipPath id="c"><path fill="#fff" d="M.438.206h30v30h-30z"/></clipPath></defs></svg>
